X: 116002
T: MISS STEWART OF FASNACLOICH'S
Q: "Reel."
R:  Reel.
%R: reel
B: James Kerr "Merry Melodies" v.1 p.16 s.0 #2
Z: 2017 John Chambers <jc:trillian.mit.edu>
M: C
L: 1/8
%%slurgraces yes
%%graceslurs yes
K: A
ue |\
vA<Aec e2ec | (uf/g/a) ec fBBa |\
vA<Aec e2ce | {g}ua>uf ec eA A ::\
ug |\
a2ae (fe)ce | a2ae (fB)Bg |\
a2ae (fe)ce | (f/g/a) (ec) eA A :|
|: ue |\
A<AeA fAeA | aAec fBBa |\
A<AeA fAAa | (f/g/a) (ec) eA A ::\
(3(ue/f/g/) |\
aece fece | aece fBBg |\
aece fece | (f/g/a) (ec) eA A :|

%%sep 1 1 500
%%sep 1 1 500

